assets/icons/social/github.svg

<svg xmlns="http://www.w3.org/2000/svg" style="isolation:isolate" width="195" height="195"><defs><clipPath id="a"><path d="M0 0h195v195H0z"/></clipPath></defs><g clip-path="url(#a)"><path fill="#12100E" d="M0 0h195v195H0z"/><path d="M97.5 38.603c-33.347 0-60.388 27.035-60.388 60.388 0 26.682 17.303 49.317 41.297 57.303 3.017.56 4.125-1.31 4.125-2.905 0-1.44-.057-6.197-.082-11.243-16.8 3.653-20.345-7.125-20.345-7.125-2.747-6.98-6.705-8.836-6.705-8.836-5.481-3.748.412-3.67.412-3.67 6.064.425 9.258 6.223 9.258 6.223 5.386 9.23 14.127 6.562 17.573 5.02.542-3.903 2.107-6.568 3.834-8.076-13.413-1.525-27.514-6.704-27.514-29.843 0-6.593 2.36-11.98 6.223-16.21-.628-1.52-2.696-7.662.584-15.98 0 0 5.07-1.623 16.609 6.19C87.2 68.5 92.367 67.827 97.5 67.804c5.13.023 10.3.694 15.127 2.033 11.526-7.813 16.59-6.19 16.59-6.19 3.287 8.317 1.22 14.46.593 15.98 3.872 4.23 6.215 9.617 6.215 16.21 0 23.194-14.127 28.3-27.575 29.796 2.167 1.874 4.098 5.55 4.098 11.183 0 8.08-.071 14.583-.071 16.572 0 1.607 1.089 3.49 4.149 2.897 23.98-7.994 41.263-30.622 41.263-57.294-.001-33.351-27.04-60.387-60.389-60.387v-.001z" fill-rule="evenodd" fill="#FFF"/><path d="M59.984 125.306c-.133.3-.605.39-1.036.185-.439-.196-.685-.605-.542-.906.13-.31.603-.395 1.039-.188.44.197.69.61.538.91l.001-.001zm2.446 2.729c-.287.267-.851.143-1.232-.28-.396-.42-.47-.983-.177-1.254.298-.266.843-.14 1.239.28.395.426.473.984.17 1.255v-.001zm2.381 3.477c-.37.258-.976.017-1.349-.52-.37-.538-.37-1.183.01-1.44.373-.258.969-.025 1.35.507.367.545.367 1.19-.011 1.452v.001zm3.261 3.361c-.329.365-1.036.267-1.551-.23-.527-.487-.675-1.18-.343-1.544.336-.366 1.045-.264 1.564.23.526.486.686 1.18.333 1.543l-.003.001zm4.5 1.951c-.146.473-.824.688-1.509.486-.683-.207-1.13-.76-.991-1.238.141-.477.824-.7 1.512-.485.684.206 1.131.756.988 1.237zm4.944.361c.017.498-.563.91-1.28.92-.724.017-1.308-.387-1.315-.877 0-.503.567-.91 1.29-.924.717-.013 1.306.387 1.306.88l-.001.001zm4.597-.782c.087.485-.412.984-1.125 1.117-.7.13-1.351-.172-1.44-.653-.086-.498.422-.997 1.122-1.126.714-.123 1.354.17 1.443.663v-.001z" fill="#FFF"/></g></svg>

<?xml version="1.0" standalone="no"?><!-- Generator: Gravit.io --><svg xmlns="http://www.w3.org/2000/svg" xmlns:xlink="http://www.w3.org/1999/xlink" style="isolation:isolate" viewBox="0 0 195 195" width="195" height="195"><defs><clipPath id="_clipPath_xUlIw8awaD9EM1EslAC3rw4J8vZ0Brsc"><rect width="195" height="195"/></clipPath></defs><g clip-path="url(#_clipPath_xUlIw8awaD9EM1EslAC3rw4J8vZ0Brsc)"><g><rect x="0" y="0" width="195" height="195" transform="matrix(1,0,0,1,0,0)" fill="rgb(18,16,14)"/></g><path d=" M 97.5 38.603 C 64.153 38.603 37.112 65.638 37.112 98.991 C 37.112 125.673 54.415 148.308 78.409 156.294 C 81.426 156.854 82.534 154.984 82.534 153.389 C 82.534 151.949 82.477 147.192 82.452 142.146 C 65.652 145.799 62.107 135.021 62.107 135.021 C 59.36 128.041 55.402 126.185 55.402 126.185 C 49.921 122.437 55.814 122.515 55.814 122.515 C 61.878 122.94 65.072 128.738 65.072 128.738 C 70.458 137.968 79.199 135.3 82.645 133.758 C 83.187 129.855 84.752 127.19 86.479 125.682 C 73.066 124.157 58.965 118.978 58.965 95.839 C 58.965 89.246 61.325 83.859 65.188 79.629 C 64.56 78.109 62.492 71.967 65.772 63.649 C 65.772 63.649 70.842 62.026 82.381 69.839 C 87.2 68.5 92.367 67.827 97.5 67.804 C 102.63 67.827 107.8 68.498 112.627 69.837 C 124.153 62.024 129.217 63.647 129.217 63.647 C 132.504 71.964 130.437 78.107 129.81 79.627 C 133.682 83.857 136.025 89.244 136.025 95.837 C 136.025 119.031 121.898 124.137 108.45 125.633 C 110.617 127.507 112.548 131.183 112.548 136.816 C 112.548 144.896 112.477 151.399 112.477 153.388 C 112.477 154.995 113.566 156.878 116.626 156.285 C 140.606 148.291 157.889 125.663 157.889 98.991 C 157.888 65.64 130.849 38.604 97.5 38.604 L 97.5 38.603 Z " fill-rule="evenodd" fill="rgb(255,255,255)"/><path d=" M 59.984 125.306 C 59.851 125.606 59.379 125.696 58.948 125.491 C 58.509 125.295 58.263 124.886 58.406 124.585 C 58.536 124.275 59.009 124.19 59.445 124.397 C 59.885 124.594 60.135 125.007 59.983 125.307 L 59.984 125.306 Z  M 62.43 128.035 C 62.143 128.302 61.579 128.178 61.198 127.755 C 60.802 127.335 60.728 126.772 61.021 126.501 C 61.319 126.235 61.864 126.361 62.26 126.781 C 62.655 127.207 62.733 127.765 62.43 128.036 L 62.43 128.035 Z  M 64.811 131.512 C 64.441 131.77 63.835 131.529 63.462 130.992 C 63.092 130.454 63.092 129.809 63.472 129.552 C 63.845 129.294 64.441 129.527 64.822 130.059 C 65.189 130.604 65.189 131.249 64.811 131.511 L 64.811 131.512 Z  M 68.072 134.873 C 67.743 135.238 67.036 135.14 66.521 134.643 C 65.994 134.156 65.846 133.463 66.178 133.099 C 66.514 132.733 67.223 132.835 67.742 133.329 C 68.268 133.815 68.428 134.509 68.075 134.872 L 68.072 134.873 Z  M 72.572 136.824 C 72.426 137.297 71.748 137.512 71.063 137.31 C 70.38 137.103 69.933 136.55 70.072 136.072 C 70.213 135.595 70.896 135.372 71.584 135.587 C 72.268 135.793 72.715 136.343 72.572 136.824 Z  M 77.516 137.185 C 77.533 137.683 76.953 138.095 76.236 138.105 C 75.512 138.122 74.928 137.718 74.921 137.228 C 74.921 136.725 75.488 136.318 76.211 136.304 C 76.928 136.291 77.517 136.691 77.517 137.184 L 77.516 137.185 Z  M 82.113 136.403 C 82.2 136.888 81.701 137.387 80.988 137.52 C 80.288 137.65 79.637 137.348 79.548 136.867 C 79.462 136.369 79.97 135.87 80.67 135.741 C 81.384 135.618 82.024 135.911 82.113 136.404 L 82.113 136.403 Z " fill="rgb(255,255,255)"/></g></svg>
